X:1
T:Quest'e la prima
T:Quest'e la prima
T:Giovanni Giacomo Antiquis
T:Source : Primo libro delle villanelle a 3 voci---Venetia---Figlio d'A.Gardano---1574. Editor : André Vierendeels (27/03/16).
T:Notes : Original clefs : C1, C2, C4 Editorial accidentals above the staff "Alla napolitana" Music by composers from Bari, collected by G.de Antiquis 
T:©
T:©
T:©
C:Giovanni Giacomo Antiquis
Z:©
%%score [ 1 2 3 ]
L:1/8
Q:1/4=120
M:4/4
K:C
V:1 treble nm="Soprano" snm="S"
V:2 treble nm="Alto" snm="A"
V:3 treble-8 nm="Tenor" snm="T"
V:1
 F4 E2 F2 | D4 E2 E2 | C2 C2 F4 | D4 E3 E | C2 F2 D2 E2 | F4 E4 | A3 A G2 F2 | E4 D4 | A4 G2 G2 | %9
w: 1)Que- st'e la|pri- ma, que-|ste la pri-|ma, del- le|1)mie que- rel- *|* le,|del- le mie que-|rel- le,|che do di|
w: 2)Non tro- va-|* ra, non|tro- va- ra,|di lei la|2)piu cru- de- *|le, di|lei la piu cru-|de- le,|cer- ca pur|
w: 3)Quan- do mi|co- man- da-|va, quan- do|mi co- man-|3)da- va pie- ne|ve- le,|pie- ne ve- *|* le,|su- bi- to'an-|
w: 4)Pro- ve di|dun- que'A- mor|ch'el dol- ce|me- le, A-|4)mor ch'el col- ce|me- le,|A- mor dol- ce|me- le,|a me pro-|
 c2 B2 A4 | G2 A2 A2 A2 | d4 c2 A2 | G2 F2 E4 | D4 z4 | d4 c2 A2 | B4 A2 A2 | c2 c2 GFGA | %17
w: 1)mia ne- mi-|ca, al Dio d'a-|mo- re, al|Dio d'a- mo-|1)re,|Ch'a me da|fron- de, ch'a|1)me da fron- * * *|
w: 2)lo- ce- *|an e'l Mar mag-|gio- re, e'l|Mar mag- gio-|2)re,|Ch'a me da|fron- de, ch'a|2)me da fron- * * *|
w: 3)da- va'e in|scam- bio di fa|vo re, di|fa- vo- *|3)re,|ch'a me da|fron- de, ch'a|3)me da fron- * * *|
w: 4)mes- so do-|ni per mer- ce-|* de, per|mer- ce- *|4)de,|ch'in te sol|ho spe- ran-|4)za, spe- ran- * * *|
 _B2 B2 A3 A | d2 c2 B4 | A2 G2- G2 F2 | E4 D4 :| %21
w: de ad al- tro|frut- t'e fio-|re, frut- * t'e|fio- re.|
w: de ad al- tro|frut- t'e fio-|re, frut- * t'e|fio- re.|
w: de ad al- tro|frut- t'e fio-|re, frut- * t'e|fio- re.|
w: * za'in te sol|fe- * *|de, sol * fe-|* de.|
V:2
 D4 C2 C2- | C2 B,2 C2 C2 | A,2 A,2 D4 | B,4 C3 C | A,2 C2 B,2 ^C2 | D4 C4 | F3 F E2 D2- | %7
w: 1)Que- st'e la|* pri- ma, que-|ste la pri-|ma,, de- le|1)mie que- rel- *|* le,|del- le mie que-|
w: 2)Non tro- va-|* * ra, non|tro- va- ra,|di lei le|2)piu cru- de- *|* le,|lei la piu cru-|
 D2 ^C2 D2 F2- | F2 E4 D2 | E2 G4 F2 | G2 F2 E2 A2- | A2 G2 A2 F2 | E2 D4 ^C2 | D2 F2 E2 F2 | %14
w: * rel- le, che|* do di|1)mia ne- mi-|ca, al Dio d'a-|* mo- re, al|Dio d'a- mo-|1)re, ch'a me da|
w: * de- le, cer-|* ca pur|2)lo- ce- *|an e'l Mar mag-|* gio- re, e'l|Mar mag- gio-|2)re, ch'a me da|
 DEFG A2 E2 | G2 G2 FEFG | A2 A2 EDEF | G2 G2 F2 DE | FG A4 G2 | A2 E4 D2- | D2 C2 D4 :| %21
w: fron- * * * de, ch'a|me da fron- * * *|1)de, da fon- * * *|de ad al- tro\_\_\_\_\_\_\_\_\_\_\_\_\_\_\_\_\_\_\_\_\_fio- *|* \_- * *|re, frut- t'e|* fio- re.|
w: fron- * * * de, ch'a|me da fron- * * *|2)de, da fron- * * *|de ad al- tro frut-|* * te fio-|re, frut- t'e|* fio- re.|
V:3
 D4 A2 F2 | G4 C4 | F4 D2 D2 | G4 C4 | F3 F G2 E2 | DEFG A4 | F3 F G2 B2 | A4 D2 d2- | d2 c4 B2 | %9
w: 3)Quan- do mi|co- man-|da- va, quan-|do mi|3)co- man- da- *|* * * * va,|pie- ne ve- *|* le, su-|* bi- to'an-|
w: 4)Pro- ve di|dun- que'A-|mor ch'el dol-|ce me-|4)le, ch'el dol- ce|me- * * * le,|A- mor col- ce|me- le, a|* me pro-|
 A2 G2 d4 | G2 d2 c2 A2 | _B4 A2 d2 | c2 d2 A4 | D2 d2 c2 A2 | _B4 A4 | G4 d2 d2 | AGAB c2 c2 | %17
w: 3)da- va'e in|scam- bio di fa-|vo- re, di|fa- vo- *|3)re, ch'a me da|fron- de,|ch'a me da|3)fron- * * * de ad|
w: 4)pro- mes- so|co- ni per mer-|ce- de, per|mer- ce- *|4)de, ch'in te sol|ho spe-|ran- za'in te|4)sol\_\_\_\_\_\_\_\_\_\_\_\_fe- de * * * *|
 G2 G2 d4- | d2 f2 e4 | A2 c4 d2 | A4 D4 :| %21
w: al- tro frut-|* t'e fio-|re, frut- t'e|fio- re.|
w: |* t'e fio-|re, frut- t'e|fio- re.|

